X:1
T:Piano Sonata
T:Johann Peter Pixis. Op.10.
T:mov. I
%%score { ( 1 3 5 ) | ( 2 4 6 ) }
L:1/8
Q:1/4=120
M:3/4
K:Eb
V:1 treble nm="Piano" snm="Pno."
V:3 treble 
V:5 treble 
V:2 bass 
V:4 bass 
V:6 bass 
V:1
!p!"^Allegro." (G,>E E2) .[C=E]2 |!<(! .[CF]2 .[CD^F]2 .[=B,DG]2!<)! | %2
!f! a'/g'/=f'/e'/ d'/c'/=b/a/ g/f/e/d/ | f/e/d/e/ c2 z2 |!p! (G,>E E2) .[C=E]2 | %5
!<(! .[CF]2 .[C=EG]2 .[CFA]2!<)! |!f! [Aa]/[Gg]/f/e/ d/c/=B/A/ G/F/E/D/ | C2 z3/2 C/ C>e | %8
 (e4 d2) | z2 z3/2 B,/ B,>_d | (_d4 c2) | z2 z3/2 A,/ A,>_c | (_c4 B>)_d | (_d4 c>)e | %14
 (e2 (=d)=e=f[d^f]) | [dg]2 z2 z2 |!p! (G,>E E2) .[C=E]2 |!<(! .[CF]2 .[CD^F]2 .[=B,DG]2!<)! | %18
!f! a'/g'/=f'/e'/ d'/c'/=b/a/ g/f/e/d/ | f/e/d/e/ c2 z2 |!p! (G,>E E2) [C=E]2 | %21
!<(! [CF]2 [C_EG]2 [CEA]2!<)! |!f! [aa']/[gg']/f'/e'/ d'/c'/=b/a/ g/f/e/d/ | c2 z c=BA | %24
 (G>d) d2 g2 | (f/e/d/e/) cc=BA | (G>d) d2 g2 | (f/e/d/e/) c!mf!c=BA | (G>d)!p! d2 !>!g2 | %29
 (c>f) f2 !>![_c_c']2 | ([Bb]>[ee']) [ee']2 !>![_g_g']2 | [ff']>[Bb] (([Bb]2 [=A=a]2)) | %32
 [ff']>[_A_a] (([Aa]2 [Gg]2)) | [_d_d']>[=E=e] (([Ee]2 [Ff]2)) | [_c_c']>[=D=d] (([Dd]2 [Ee]2)) | %35
 [_F_f]/f/!f!_f'/e'/ _d'/_c'/b/a/ _g/_f/e/_d/ | _c/B/A/_G/ _F/E/_D/_C/[K:bass] B,/A,/_G,/_F,/ | %37
 E,/_G,/_C/E/[K:treble] _G/_c/e/_g/ _c'/=f/g/e/ | A,/_D/_F/A/ _d/_f/a/_d'/ _f'/c'/d'/a/ | %39
 A,/B,/=D/=F/ A/B/d/f/ _c'/g/a/f/ | _G,/B,/E/_G/ B/e/_g/b/ e'/=a/b/g/ | %41
!ff! =A,/E/_G/=A/ e/_g/=a/e'/ _g'/d'/e'/a/ | b/d/f/b/!8va(! d'/f'/_c''/d'/ e'/b'/=a/_g'/ | %43
 f'/^c'/d'/b/ f'/d'/!8va)!_c'/d/ e/b/=A/_g/ | f/^c/d/B/ F/D/_c/D/ E/B/=A,/_G/ | %45
 F/^C/D/B,/[K:bass] F,/D,/_C/D,/ E,/B,/=A,,/_G,/ | [B,,F,]2 z/ (=A,,/B,,/A,,/ B,,/)(^C,/D,/C,/ | %47
 D,/)(=E,/F,/E,/ F,/)(G,/A,/G,/ A,/)([G,^C]/[A,D]/[G,C]/ | %48
 [A,D]/)([^C=E]/[DF]/[CE]/ [DF]/)[K:treble] ([=EG]/[FA]/[EG]/ [FA]/)([G^c]/[Ad]/[Gc]/ | %49
 [Ad]/)([^c=e]/[df]/[ce]/ [df]/)([eg]/[fa]/[eg]/ [fa]/)([g^c']/[ad']/[gc']/ | %50
!f! [ad']/)([^c'=e']/[d'f']/[c'e']/ [d'f']/)!8va(! ([e'g']/[f'a']/[e'g']/ [f'a']/)[g'^c'']/[a'd'']/[g'c'']/ | %51
 [a'd'']/d'/f''/e''/ d''/c''/b'/=a'/ _a'/g'/f'/e'/ | %52
{/f'} e'/d'/c''/b'/ a'/f'/d'/b/!8va)! a/f/{/g}f/e/ |{/f} e/d/c'/b/ a/f/d/B/ A/F/{/G}F/E/ | %54
{/F} E/D/c/B/ A/F/D/B,/[K:bass] A,/F,/{/G,}F,/E,/ | %55
{/F,} E,/D,/C/B,/ A,/F,/D,/B,,/ A,,/F,,/D,,/B,,,/ |!p![Q:1/4=110] z6[Q:1/4=100] | %57
[K:treble][Q:1/4=80] z B,[Q:1/4=60] z [=A,B,] z [_A,B,] | %58
[Q:1/4=120]"^a Tempo"!p! [G,B,]2 z3/2"_dolce" E/ E>e | (e4 c2) | B2 z3/2 E/ E>e- | (e4 _c2) | %62
 B2 z3/2 E/ E>g |!<(! ([Bg]2 [=A^f]2 [_A=f]2)!<)! |!>(! (e2 d2 ^c2)!>)! | (d2!pp! GBT=AB) | %66
 (G2"^dim." ^F2 =F2) | [EG]>e [Ge]>g g>=B | (d2 c2) c2 | c>a [ca]>c' c'>=e | (g2 f2) B2 | %71
 [GB]>b ([_db]2 [ca]2) | e>c'!<(! (c'2 b2)!<)! | (e>_d')!>(! (d'2 =b2)!>)! | %74
 [eac']3 ([gb][^f=a][=f_a]) | g4 x2 | af e z [Bd] z | !fermata!z6 |!p! z2 (3z G,B, (3EGB | %79
 (3eBG{/B} (3AGA (3Eec | B2 (3z GB (3egb | (3e'bg{/b} (3aga (3ee'_c' | b2 (3z!<(! g^f (3gbe'!<)! | %83
!mf! (3gg'f'!>(! (3ee'd' (3cc'b!>)! |!>(! =a2!>)! b2- (3:2:2b2 _a | (3[eg]g'f' (3ee'd' (3cc'b | %86
!>(! =a2!>)! b2- (3:2:2b2 _a |!>(! (g2!>)! a2) z2 |!>(! c'2!>)!!>(! d'2!>)!!>(! =e'2!>)! | %89
!8va(! f'2 ^f'2 g'2 | (3[aa']=e'f' (3c''a'f' (3c'af!8va)! | (3e=Bc (3e'c'=a (3_gec | %92
 (3B z c (3def (3ga=a | (3b[Bb][cc'] (3[dd'][ee'][ff'] (3[gg'][aa'][=a=a'] | %94
!f! [bb']2 [_CEF]3 [B,EF] |!p! [=A,EF]>[=Ae=a] [Aea]2 [Beb]2 | [cec']2 [CEF]3 [B,EF] | %97
 [=A,EF]>[_ge'] ([ge']2 =A2) | B2 z [EG][G,E][A,F] |[K:bass] [D,A,B,]3 ([D,A,=B,][E,A,C][F,A,D] | %100
 [G,E]) z z[K:treble]"^legato" B/g/ =A/^f/_A/=f/ | G/e/^F/e/ =F/d/=E/_d/ _E/c/=D/_c/ | %102
 [EB]2 z B/g/ =A/^f/_A/=f/ | G/e/^F/e/ =F/d/=E/_d/ _E/c/=D/_c/ | %104
 [EB]2 z B/g/!<(! =A/^f/_A/=f/!<)! | G/e/!>(!_d/b/!>)! c/a/!>(!e/c'/!>)! e/b/!>(!g/_d'/!>)! | %106
 c'/a/=d/f'/ e'/d'/c'/b/ =a/b/c'/_a/ | g/e/d/f'/ e'/d'/c'/b/ =a/b/c'/_a/ | %108
 g>f e/d/c/B/ [Aa]/g/f/e/ | [dd']/c'/b/a/ [gg']/f'/e'/d'/ [c'c'']/b'/a'/g'/ | %110
!8va(! [f'f'']/e''/d''/c''/ b'/a'/g'/f'/ e'/d'/c'/=b/!8va)! | c'/g/a/e/ c/A/E/C/ A,/E/G,/E/ | %112
 =F,/C/E/F/ c/e/f/e/ c/e/B/e/ | =A/e/f/e/ _g/e/f/e/ _A/e/b/a/ | =A/f/a/f/ b/f/a/f/ B/f/_c'/b/ | %115
 B/_g/e/g/ b/B/=g/e/ _c'/_c/a/e/ | _d'/_d/b/e/ _c'/_c/a/e/ e'/e/e'/=c'/ | %117
 bB/e/ g/b/e'/g'/!8va(! b'/a'/g'/b'/ | a'/g'/f'/a'/ g'/f'/e'/g'/ f'/e'/d'/f'/!8va)! | %119
 e'/d'/c'/e'/ d'/c'/b/d'/ c'/b/a/c'/ | b/a/g/b/ a/a'/d'/g'/!<(! f/f'/b/e'/ | %121
 d/d'/g/c'/ B/b/e/a/ G/g/c/f/ | E/e/A/d/ C/c/F/B/!<)! [=A,E_G]/=A/[B,EG]/B/ | %123
 [CE_Gc]>[e_gc'] [egc']2 z2 | [F,A,D]>!p![dfad'] [dfad']2 z2 | [E,G,E]>!p![ege'] [ege']2 z2 | %126
 z!p! [CEF] z [B,EG] z [A,DF] | [G,E]2 z3/2 E/ E>e | e4- e>d | [Ad]_c'/b/ a/g/f/e/ d/e/f/d/ | %130
 (f/e/d/e/) B2 z2 | z3/2 E/ E>e!<(! e>e' | e'>a a>g g>_c'!<)! | _c'/b/=a/_a/ g/f/a'/f'/ d'/b/a/f/ | %134
 (d/e/f/e/) B2 z2 | (c/B/=A/B/) D2 z2 | (F/E/D/E/) [G,B,]2 z [G,B,] | %137
[K:bass] [A,C]/B,/=A,/B,/ D,2 z3/2 [F,_A,D]/ | [_G,E]2 E,2 z2 | %139
[K:treble] [Ac]/B/=A/B/ D2 z3/2 [_A,D]/ | [_G,E]2 ^D2 =E2 || %141
[K:B]!p! G/F/^E/F/[K:bass] [D,B,]2 z3/2 B,/ | D/C/^B,/C/ !wedge!F,!wedge!=B,!wedge!E,!wedge!A, | %143
 [D,B,]2[K:treble] z3/2 B,/ B,>B | B>EE>D!<(! D>C!<)! | CD/E/!>(! F/G/A/B/ c/d/e/A/!>)! | %146
!p! (c/B/A/B/) F2 z2 | z3/2!<(! B/ B>b b>b'!<)! | b'g'/e'/ b/=g/e/B/ ^A/B/=d/f/ | %149
 b/b'/=g'/e'/ b/f/^d/B/ ^A/B/=d/f/ | ^e/^e'/=d'/b/ g/e/[B=d]/^e/ [Bd]/g/[Bd]/f/ | %151
 [B=d]/^e/d/B/ G/!courtesy!^E/[B,=D]/E/ [B,D]/G/[B,D]/F/ | %152
 [B,=D]/^e/=d/B/ G/^E/D/B,/[K:bass] G,/^E,/C,/B,,/ ||[K:A] A,, z z[K:treble] F^ED | %154
 C/^E/G/B/ c/^e/g/f/ e/d/c/B/ | B/A/G/A/ FF ^ED | C/^E/G/B/ c/^e/g/f/ e/d/c/B/ | B/A/G/A/ FF =ED | %158
 C/E/=G/A/ c/A/e/d/ c/B/A/G/ | =G/=F/E/F/ DD =C_B, ||[K:C] A,/C/_E/F/ A/F/c/_B/ A/G/F/E/ | %161
 _D/F/_B/_d/ f/_b/_d'/=e/ f/c'/d/_c'/ | _b/_B/_e/_g/ b/B/b/B/ c/a/d/_a/ | %163
 _g/_G/_B/_e/ g/G/^f/^F/ ^G/^e/^A/=e/ | =d2 z B ^AG/g/ ||[K:A] F/f/e/e'/ ^d/^d'/=c/=c'/ B/b/a/a'/ | %166
 =g/=g'/f/f'/ ^e/^e'/f/f'/ =e/=e'/d/d'/ | c/c'/d/d'/ c/c'/B/b/ ^A/^a/B/b/ | %168
 ^D/^d/E/e/ ^E/^e/B/c/ F/f/B/c/ | =G/=g/B/c/ F/f/B/c/ ^E/^e/B/c/ | %170
 F/f/B/c/!p! =E/=e/B/c/ F/f/B/c/ | =G/=g/_B/c/ G/g/B/c/ G/g/B/d/ | %172
[K:C] A/a/c/d/ ^F/^f/c/d/ G/g/c/d/ | A/a/c/d/ G/g/c/d/ ^F/^f/c/d/ | %174
 G/g/c/d/!p! =F/=f/c/d/ G/g/c/d/ | _A/_a/B/d/ A/a/B/d/ A/a/_c/_e/ | %176
 _B/_a/_d/_e/ G/g/d/e/ _A/a/d/e/ | _B/_b/_d/_e/ _A/_a/d/e/ G/g/d/e/ | %178
 _A/_a/_d/_e/!p! G/g/d/e/ A/a/d/e/ | =A/=a/_d/_e/ =A/=a/c/e/ =A/=a/=B/^d/ | %180
 =G/=g/=B/=e/ G/g/=c/e/ =F/f/B/d/ | _E/_e/G/c/ E/e/_A/c/ _D/_d/G/_B/ | %182
!f! C/c/C/c/ _E/c/^F/^D/[I:staff +1] C/^F,/_E,/C,/ |!p! B,,2[I:staff -1] z/ D/B,/_A/ C/G/^F/c/ | %184
 [GB]2 z/ d/B/_a/ c/g/^f/c'/ | [gb]2 z/!8va(! d'/b/_a'/ c'/g'/^f'/c''/ | %186
 =f'/b'/e'/_b'/ _e'/=a'/d'/_a'/ ^c'/g'/=c'/^f'/ | %187
 =b/!p!(e''/=f''/d''/ b'/g'/).f'/.e'/ (^c'/d'/).f'/.e'/ | %188
 (^c'/d'/).f'/.e'/!8va)! b/g/.f/.e/ (^c/d/).f/.e/ | %189
 (^c/d/a/g/ e/d/).[=cf]/.[Be]/ ([G^c]/[Ad]/)([^FB]/[G=c]/) | %190
[Q:1/4=110] [E^A]/[=FB]/[D^G]/[=E=A]/ [^C^F]/[D=G]/[B,E]/[=C=F]/ [A,^D]/[B,E]/[G,^C]/[A,=D]/ | %191
[Q:1/4=100] ([G,^C]/[A,D]/).[=CF]/.[B,E]/ ([G,^C]/[A,D]/).[=CF]/.[B,E]/ .[CA].[CG] | %192
 .[CF].[CE].D.C.B,.A, |[K:bass][Q:1/4=90] .G,.[^F,G,].[=F,G,].[E,G,].[D,G,].[C,G,] | %194
[Q:1/4=80] .[B,,G,].[B,,G,].[C,G,].[^C,G,].[D,G,].[^D,G,] | %195
[Q:1/4=120] [E,G,]2[K:treble] z3/2"^dolce" C/ C->c | c6 | G2 z3/2 C/ C->c | c6 | G2 z3/2 C/ C>e | %200
!<(! ([Ge]2 [^F^d]2 [=F=d]2)!<)! |!>(! (c2 B2 ^A2)!>)! | B2!pp! (EGT^FG) |"^dimin." E4- E2 | %204
 [CE]>c [Ec]>e e>^G | (B2 A2) [=GA]2 | [FA]>f [Af]>a a>^c | (e2 d2) [FG]2 | [EG]>g ([_Bg]2 [Af]2) | %209
!<(! (c>a) (a2 g2)!<)! |!>(! (c>_b) (b2 ^g2)!>)! | ([cfa]3 [eg][^d^f][=d=f]) | (e4 x2 | %213
"^dimin." fd) [Gc] z [FGB] z | !fermata!z6 |!p! z2 (3z[I:staff +1] E,G, (3C[I:staff -1]EG | %216
 (3cGE{/G} (3FEF (3CcA | G2 (3z EG (3ceg | (3c'ge (3Tfef (3cc'_a | g2 (3z!<(! Ted (3egc'!<)! | %220
!mf! (3ee'd'!>(! (3cc'b (3Aag!>)! |!>(! ^f2!>)! g2- (3:2:2g2 =f | (3[ce]e'd' (3cc'b (3Aag | %223
!>(! ^f2!>)! g2- (3:2:2g2 =f |!>(! (e2!>)! f2) z2 |!>(! a2!>)!!>(! =b2!>)!!>(! ^c'2!>)! | %226
"_cresc." d'2 _e'2 =e'2 | (3[ff']^c'd' (3a'f'd' (3afd | (3c^GA (3c'a^f (3_ecA | %229
 (3G z A!<(! (3Bcd (3ef^f | (3g[Gg][Aa] (3[Bb][cc'][dd'] (3[ee'][ff'][^f^f']!<)! | %231
!f! [gg']2 [_A,CD]3 [G,CD] | [^F,CD]>!p![^Fc^f] [Fcf]2 [Gcg]2 | [Aca]2 [A,CD]3 [G,CD] | %234
 [^F,CD]>[_ec'] ([ec']2 ^f2) | g2 z"_rall." ([ce][Ec][Fd]) | %236
"_-" [B,FG]3"_-" ([B,F^G][CFA]"_-"[DFB] | [Ec]2) z[K:treble] G/e/ ^F/^d/=F/=d/ | %238
 E/c/_E/c/ D/B/^C/_B/ =C/A/=B,/_A/ | [CG]2 z!<(! G/e/ ^F/^d/=F/=d/!<)! | %240
 E/c/!>(!_B/g/!>)! A/f/!>(!c/a/!>)! c/g/!>(!e/_b/!>)! | a/f/=B/d'/ c'/b/a/g/ ^f/g/a/=f/ | %242
 e/c/B/d'/ c'/b/a/g/ ^f/g/a/=f/ | e>d c/B/A/G/ [Ff]/e/d/c/ | %244
 [Bb]/a/g/f/ [ee']/d'/c'/b/ [aa']/g'/f'/e'/ | %245
!8va(! [d'd'']/c''/b'/a'/!8va)! g'/f'/e'/d'/ c'/b/a/^g/ | a/e/f/c/ A/F/C/A,/ x2 | %247
 x2 A/c/_e/c/ A/c/A/c/ |!>(! ^F/c/d/c/!>)!!p! _e/c/d/c/ =F/c/g/f/ | F/d/f/d/ g/d/f/d/ G/d/_a/g/ | %250
!<(! G/_e/c/e/ g/G/=e/c/ _a/_A/f/c/!<)! |!mf! _b/_B/g/c/ b/B/g/c/ c'/c/c'/=a/ | %252
 g!>(!G/c/ e/g/c'/e'/!>)!!p! g'/f'/e'/g'/ | f'/e'/d'/f'/ e'/d'/c'/e'/ d'/c'/b/d'/ | %254
 c'/b/a/c'/ b/a/g/b/ a/g/f/a/ | g/f/e/g/ f/f'/b/e'/ d/d'/g/c'/ | B/b/e/a/ G/g/c/f/ E/e/A/d/ | %257
 C/c/F/B/ A,/A/D/G/!mf! [^F,C_E]/^F/[G,CE]/F/ |!f! [A,C_EA]>[c_ea] [cea]2 z2 | %259
!f![I:staff +1] [D,=F,B,]>[I:staff -1][Bdfb] [Bdfb]2 z2 | %260
!f![I:staff +1] [C,E,C]>[I:staff -1][cec'] [cec']2 z2 |!p! z [A,CD] z [G,CE] z [B,D] | %262
 C2 z3/2 C/ C>c | c>FF>E E>D | MDE/F/ G/A/B/c/ d/e/f/B/ | d/c/B/c/ G2 z2 | z3/2!<(! A/ A>d d>g | %267
 g>c' c'>_e'!<)!!>(! e'>^f!>)! | a/g/=f/e/ d/c/B/A/ G/F/E/D/ | C2 z!mf! e/d/ c/B/A/G/ | %270
 [B,DG]/F/E/F/ D/B,/f/d/ B/G/F/D/ | C2 z e'/d'/ c'/b/a/g/ | [Bdg]/f/e/f/ d/B/f'/d'/ b/g/f/d/ | %273
 c[Ee]/d/ c/B/[Aa]/g/ f/e/[dd']/c'/ | b/a/[gg']/f'/ e'/d'/[c'c'']/b'/!f! a'/g'/f'/e'/ | %275
 d'/c'/b/a/ g/^f/=f/e/ d/c/B/A/ | G/F/E/F/ D!<(![B,FG][CFA][DFB] | %277
 [Ec] [GBdg][Acda][Bdgb][cgc'][dfgd']!<)! |!fff! [ege']2 [fc'f']2 [ac'f'a']2 | %279
 [gc'e'g']>[CEG] [CEG]2 z2 | [gbd'g']>[B,DFB] [B,DFB]2 z2 | %281
!f! [cegc']>[K:bass]!p![E,G,C]"_dim." [E,G,C]>[F,C]"_-"[F,C]>[E,C] | %282
"_-" [E,C]>[A,C]"_-"[A,C]>[^F,C]"_-"[F,C]>!pp![G,C] | [G,C]6- | [G,C]6 |] %285
V:2
 z2 .[C,,C,]2 .[B,,,B,,]2 | .[=A,,,=A,,]2 .[_A,,,_A,,]2 .[G,,,G,,]2 | %2
[K:treble] a/g/f/e/ d/c/=B/A/ G/F/E/D/ | F/E/D/E/ C2 z2 |[K:bass] z2 .[C,,C,]2 .[B,,,B,,]2 | %5
 .[A,,,A,,]2 .[G,,,G,,]2 .[F,,,F,,]2 | .[G,,,G,,]2 [G,=B,DF]2 z2 | C,,>C, C,4- | C,2 C2 =B,2 | %9
 _B,,,>_B,,!p! B,,4- |!p! B,,2 B,2 =A,2 | _A,,,>_A,,!p! A,,4- |!p! A,,2 A,2 G, z | z2 (B,2 =A,) z | %14
 z (C"^cresc."=B,_B,=A,_A,) | G,2 z2 z2 | z2!p! .[C,,C,]2 .[B,,,B,,]2 | %17
 .[=A,,,=A,,]2 .[_A,,,_A,,]2 .[G,,,G,,]2 |[K:treble] a/g/f/e/ d/c/=B/A/ G/F/E/D/ | F/E/D/E/ C2 z2 | %20
[K:bass] z2!p! [C,,C,]2 [B,,,B,,]2 | [A,,,A,,]2 [G,,,G,,]2 [F,,,F,,]2- | %22
 [F,,,F,,]2 [F,,,F,,]2 [G,=B,DF]2 | C,,/C,/E,/G,/ C/[I:staff -1]E/G/E/ D/F/C/E/ | %24
[I:staff +1] =B,/F/D/B,/ A,/F,/D,/=B,,/ G,,/F,,/D,,/=B,,,/ | %25
 C,,/C,/E,/G,/ C/[I:staff -1]E/G/E/ D/F/C/E/ | %26
[I:staff +1] =B,/F/D/B,/ A,/F,/D,/=B,,/ G,,/F,,/D,,/=B,,,/ | %27
 C,,/C,/E,/G,/ C/[I:staff -1]E/G/E/ D/F/C/E/ | %28
[I:staff +1] =B,/D/[I:staff -1]G/[I:staff +1]D/ _B,/D/[I:staff -1]G/[I:staff +1]D/ B,/_D/[I:staff -1]G/[I:staff +1]D/ | %29
 =A,/C/[I:staff -1]F/[I:staff +1]C/ _A,/C/[I:staff -1]F/[I:staff +1]C/ A,/_C/[I:staff -1]F/[I:staff +1]C/ | %30
 G,/B,/E/B,/ _G,/B,/E/B,/ E,/B,/E/B,/ |"^dolce" D,/F,/B,/F,/ _D,/F,/B,/F,/ C,/F,/C/F,/ | %32
 C,/F,/A,/F,/ C,/F,/G,/F,/ C,/=E,/G,/E,/ | B,,/=E,/G,/E,/ B,,/C,/G,/C,/ =A,,/C,/F,/C,/ | %34
 _A,,/D,/F,/D,/ _A,,/B,,/F,/B,,/ _G,,/B,,/E,/B,,/ | %35
!ped! [_G,,,_G,,] z/[K:treble] _G/ _f/e/_d/_c/ B/A/_G/_F/ | %36
[K:bass] E/_D/_C/B,/ A,/_G,/_F,/E,/ _D,/_C,/B,,/_G,,/!ped-up! | [_C,,_C,]>[E,_G,_C] [E,G,C]4 | %38
 [_F,,_F,]>[F,A,_D] [A,D]4 | [=D,,=D,]>[D,F,B,] [D,F,B,]2 [D,,D,]2 | %40
 [E,,E,]>[E,_G,B,E] [E,G,B,E]2 [E,,E,]2 | [_C,,_C,]>[C,E,_G,_C] [C,E,G,C]2 [C,,C,]2 | %42
 [B,,,B,,]2 z[K:treble] a"^dim."_g"^-"e |"^(dim.)" d2 z"^-" A_GF |"^-" D2 z[K:bass]"^-" A,_G,F, | %45
"^-" D,2"^-" z A,,_G,,"^-"E,, | [B,,,D,,]/!p!=A,,,/B,,,/A,,,/ B,,,2 z2 | %47
"^cresc." z2"^-" z2"^-" z/ (=E,/F,/E,/ |"^-" F,>)[B,,,B,,]"^-" [B,,,B,,]2- [B,,,B,,]/"^-"=E/F/E/ | %49
"^(cresc.)" F>[B,,B,]"^-" [B,,B,]2- [B,,B,]/[K:treble]"^-" (=e/f/e/) | %50
 f>[B,B] [B,B]2- [B,B]/ (=e'/f'/e'/) |!ped! [bf']2 z2 z"^decresc." [ac']/[gb]/!ped-up! | %52
"^(decresc.)"!ped! [fa]2 z2"^-" z [Ac]/[GB]/!ped-up! | %53
"^-"!ped! [FA]2 z2"^-" z[K:bass] [A,C]/[G,B,]/!ped-up! | %54
"^-"!ped! [F,A,]2 z2"^-" z[K:bass] [A,,C,]/[G,,B,,]/!ped-up! | %55
"^(decresc.)"!ped! [F,,A,,]2 z2"^-" z2!ped-up! | %56
"^marcato rallentando"!p! .A,,,.G,,,.F,,,.G,,,.A,,,.=A,,, | B,,,2 C,,2 D,,2 | E,,>E, E,4- | %59
 (E,2 C2 A,2) | G,2 z4 | (E,2 _C2 A,2) | G,2 z4 | (B,2 C2 D2) | E4 =A,2 | [B,D]4 [^F,C]2 | %66
 B,2 z2 =B,2 | (C,G,CG,[F,=B,]G,) | (C,G,CG,=E,C) | (F,CFC[B,=E]C) | F,CFCD,B, | E,EGEBE | %72
[K:treble] ([Ac]E[^F=A]E[GB]E | [B_d]E[GB]EG,E) | A,(EA"^dim."B,C"^-"D) | (E2"^-" A,3"^-" =E) | %76
 F"^-"A [B,G] z"^-" [B,F] z | !fermata!z6 |[K:bass] (3E,,G,,B,, E,2 z2 | z2 C2 A,2 | %80
 (3[E,G,]G,B, E2 z2 |[K:treble] z2 _c2 A2 | (3[EG]GB e2 z2 | (3Eed (3EcB (3EAG | %84
 (3_GFE (3DB,C (3^CDB, | (3Eed (3EcB (3EAG | (3_GFE (3DB,C (3^CDB, | (3_FE_D (3CA,B, (3=B,CA, | %88
 (3EF_G (3F=GA (3G=AB |"^cresc." (3_A=Bd"^-" (3=Ac_e"^-" (3_Bc_d | c2 [A,CEF]4 | %91
 [=A,CE_G]2 [A,CEG]4 | (3[B,E=G]B=A"^cresc." (3_AGF"^-" (3ED"^-"C | %93
[K:bass]"^-" (3B,[B,,B,][=A,,=A,]"^-" (3[_A,,_A,][G,,G,][F,,F,]"^-" (3[E,,E,][D,,D,][C,,C,] | %94
 [B,,,B,,]2 [A,,,A,,]3 [B,,,B,,] | [_C,,_C,]>[_CEF] [CEF]2 [B,EF]2 | %96
 [=A,EF]2 [=A,,,=A,,]3 [B,,,B,,] | [_C,,_C,]>!p![=A,CE] [A,CE]2 [CE_G]2 | %98
 [B,E=G]>[B,,B,] B,2"^rall." x2 |"^-" B,,>[B,,,B,,]"^-" [B,,,B,,]4 | %100
"^a tempo" E,,/E,/G,/B,/!p! E/E,/B,/E,/ C/E,/D/E,/ | %101
 E/E,/[=A,C]/E,/ B,/E,/[G,B,]/E,/ _A,/E,/[A,_C]/E,/ | [G,B,]/E,,/G,,/B,,/ E,/G,/B,/E,/ C/E,/D/E,/ | %103
 E/E,/[=A,C]/E,/ B,/E,/[G,B,]/E,/ _A,/E,/[A,_C]/E,/ | [G,B,]/E,,/G,,/B,,/ E,/G,/B,/E,/ C/E,/D/E,/ | %105
 E/E,/[K:treble] G/E/ A/E/[^F=A]/E/ [GB]/E/[B_d]/E/ | %106
 [Ac]/E/[A_c]/E/ [Ac]/E/[Ad]/E/ [Ad]/E/[Ad]/E/ | [Be]/E/[A_c]/E/ [Ac]/E/[Ad]/E/ [Ad]/E/[Ad]/E/ | %108
 [Be]/E/e/d/ c/B/A/G/"^cresc." F/E/D/C/ | %109
[K:bass]"^-" B,/A,/G,/F,/"^-" E,/D,/C,/"^-"B,,/ A,,/G,,/F,,/E,,/ | %110
 D,,/C,,/B,,,/A,,,/ G,,,/B,,,/E,,/G,,/ B,,/E,/G,/G,,/ | A,,>[A,,,A,,] [A,,,A,,]2 [C,E,][B,,E,] | %112
 [=A,,E,]>[=A,,,A,,] [A,,,A,,]2[K:treble] [=A,E_G][B,G] | %113
 [_CE_G]>[K:bass]!p![_C,_C] [C,_C]2 [=C,=C][E_G] | [_DF]>[_D,D] [D,D]2 [=D,=D][FA] | %115
 G,[E_G]_D,[E=G]_C,[EA] | G,,[B,E]A,,[A,_CE]=A,,[=A,=CE_G] | %117
 [B,_E=G]2 z2[K:treble] z/!8va(! d'/c'/b/ | a/c'/b/a/ g/b/a/g/ f/a/g/f/!8va)! | %119
 g/b/a/g/ f/a/g/f/ e/g/f/e/ | d/f/e/d/ c/e/B/d/"^cresc." A/c/G/B/ | %121
"^-" F/A/E/G/"^-" D/F/C/E/[K:bass]"^-" B,/D/A,/C/ | %122
"^-" G,/B,/F,/A,/"^-" E,/G,/D,/F,/!f! C,/E,/B,,/E,/ | =A,,>!p![=A,CE_G] [A,CEG]2 z2 | %124
 [=B,,,=B,,]>!p![=B,DF_A] [B,DFA]2 z2 | [C,,C,]>!p![CEG] [CEG]2 z2 | %126
 [A,,,A,,] z [B,,,B,,] z [B,,,B,,] z | E,,>E, E,4- | (C2 _C2 B,>)[F,A,_C] | [F,A,_C]2 [F,A,B,D]4 | %130
 [E,G,B,E]3 ([G,E][B,F][EG]) | E z D2 _D2 | C2 _C2 B,>[F,A,_CD] | [F,A,_CD]6 | %134
 [E,G,B,E]2 z [G,E][B,F][EG] | [B,FA]2"^dimin." z [F,A,][E,G,][B,,F,] | [E,G,]2 z!pp! (B,,G,,E,,) | %137
 B,,,2 z3/2 !wedge!B,,,/ (_C,,/B,,,/=A,,,/B,,,/) | E,,2 E,,2 z2 | %139
 [B,,_A,]2 z3/2 !wedge!B,,/ (_C,/B,,/=A,,/B,,/) | x2 [^F,=B,]2 [=E,B,]2 || %141
[K:B] D,,2 z3/2 !wedge!G,,/ (A,,/G,,/^^F,,/G,,/) | E,,>E, D,2 C,2 | x2 B,,2 =A,2 | (G,2 =G,2 F,2) | %145
 [F,A,]6 | [B,,D,F,B,]2 z ([DF][CE][F,C]) | B,6 | B,4 B,2- | B,4 [F,B,]2 | %150
 [G,B,]>C, [C,,C,][K:treble] (G^EF) | G>[K:bass][C,C] [C,C]G, ^E,F, | %152
 G,>[C,,C,] [C,,C,]3 [^E,,,^E,,] ||[K:A] F,,,/F,,/A,,/C,/ F,/A,/C/A,/ G,/B,/F,/A,/ | %154
 [^E,G,]>[C,,C,] [C,,C,][C,^E,][D,F,][E,G,] | [F,A,]/F,,/A,,/C,/ F,/A,/C/A,/ G,/B,/F,/A,/ | %156
 [^E,G,]>[C,,C,] [C,,C,][C,^E,][D,F,][E,G,] | [F,A,]/F,,/A,,/C,/ F,/A,/C/A,/ =G,/B,/F,/A,/ | %158
 [E,=G,]>[A,,,A,,] [A,,,A,,][A,,C,][B,,D,][C,E,] | %159
 [D,=F,]/D,,/=F,,/A,,/ D,/F,/A,/F,/ _E,/=G,/D,/F,/ || %160
[K:C] [C,_E,]>[F,,,F,,] [F,,,F,,][F,,A,,][G,,_B,,][A,,C,] | [_B,,_D,]2 z[K:treble] _B=A_A | %162
 _G2 z GF_B, | _E2 z ^D^C^F, |[K:bass] =B,/=B,,/=D,/^F,/ B,/D/^F/D/ ^C/E/B,/D/ || %165
[K:A] ^A,/C/[K:treble]=G/B/ F/=A/E/=G/ ^D/F/=c/e/ | B/=d/A/=c/ ^G/B/A/c/ =G/B/F/A/ | %167
 E/=G/F/A/ E/G/D/F/ C/E/D/F/ |[K:bass] F,/B,/=G,/B,/ G,/C/B,/C/ F,/C/B,/C/ | %169
 E,/C/B,/C/ F,/C/B,/C/ =G,/C/B,/C/ | F,/C/B,/C/ =G,/C/B,/C/ F,/C/B,/C/ | %171
 E,/C/_B,/C/ _E,/C/B,/C/ D,/C/B,/C/ |[K:C] D,/D/A,/D/ A,/D/C/D/ G,/D/C/D/ | %173
 ^F,/D/C/D/ G,/D/C/D/ A,/D/C/D/ | G,/D/C/D/ _A,/D/C/D/ G,/D/C/D/ | %175
 =F,/D/B,/D/ E,/D/B,/D/"^cresc." _E,/_E/_C/E/ | _E,/_E/_B,/E/ B,/E/_D/E/ _A,/E/D/E/ | %177
 G,/_E/_D/E/ _A,/E/D/E/ _B,/E/D/E/ | _A,/_E/_D/E/ __B,/E/D/E/ A,/E/D/E/ | %179
 _G,/_E/_D/E/ G,/E/C/E/ ^F,/^D/=B,/D/ | =E,/=G,/=B,/=E/ E,/G,/=C/E/"^cresc." =D,/G,/B,/D/ | %181
"^-" C,/_E,/G,/C/"^-" C,/E,/_A,/C/"^-" _B,,/_E,/G,/_B,/ | %182
!ped! [_A,,_A,]>[_A,,,A,,] [A,,,A,,]4!ped-up! | G,,,/G,,/B,,/D,/ (G,F,E,_E,) | %184
 G,,/G,/B,/D/ (GF=E_E) |[K:treble] G,/G/B/d/ (gfe_e) | d^c=cB_BA | %187
!ped! G2!ped-up! z .a/.g/ (e/f/).a/.g/ | (e/f/) z z"^poco" .A/.G/ (E/F/)"^-".A/.G/ | %189
"^a" (e/f/) z"^-" z .A/.G/"^poco" (E/F/)(^D/E/) | %190
"^-" ^C/=D/B,/"^-"=C/[K:bass]"^rall." ^A,/B,/"^-"^G,/=A,/ ^F,/=G,/"^-"E,/=F,/ | %191
 (E,/=F,/)A,/G,/ (E,/F,/).A,/.G,/ .F,.E, | .D,.C,.[B,,G,].[A,,G,].[G,,G,].F,, | %193
 .E,,.[_E,,G,,].[D,,G,,].[C,,G,,].[B,,,G,,].[A,,,G,,] | %194
 .[G,,,G,,].[_A,,,G,,].[=A,,,G,,].[^A,,,G,,].[B,,,G,,].[B,,,G,,] |"^a tempo" C,,>C, C,4- | %196
 (C,2 A,2 F,2) | E,2 x4 | (C,2 _A,2 F,2) | E,2 x4 | (G,2 A,2 B,2) | C4 ^F,2 | [G,B,]4 [^D,A,]2 | %203
 [E,G,]2 z2 [E,^G,]2 | (A,,E,A,E,[D,^G,]E,) | (C,E,A,E,^C,E,) | (D,A,DA,[G,^C]A,) | %207
 (F,A,DA,B,,G,) |!ped! C,CECFC!ped-up! |[K:treble] ([FA]C[^D^F]C[EG]C | [G_B]C[EG]C[K:bass] E,C) | %211
 (F,CFG,A,B,) | C2 F,3 ^C | DF E z D z | !fermata!z6 | (3C,,E,,G,, C,2 z2 | z2 (A,2 F,2) | %217
 (3[C,E,]E,G, C2 z2 |[K:treble] z2 (_A2 F2) | (3[CE]EG c2 z2 | (3CcB (3CAG (3CFE | %221
 (3_EDC (3B,G,A, (3^A,B,G, | (3CcB (3CAG (3CFE | (3_EDC (3B,G,A, (3^A,B,G, | %224
 (3_DC_B, (3A,F,G, (3^G,A,F, | (3CD_E (3D=EF (3E^FG | (3F_AB (3_G=Ac (3=GA_B | %227
 A2[K:bass] [F,A,CD]4 | [^F,A,C_E]2 [F,A,CE]4 | (3[G,CE]G^F"^cresc." (3=FED"^-" (3CB,A, | %230
[K:bass]"^-" (3G,[G,,G,][^F,,^F,]"^-" (3[=F,,=F,][E,,E,][D,,D,]"^-" (3[C,,C,][B,,,B,,][A,,,A,,] | %231
 [G,,,G,,]2 [F,,,F,,]3 [G,,,G,,] | [_A,,,_A,,]>[_A,CD] [A,CD]2 [G,CD]2 | %233
 [^F,CD]2 [^F,,,^F,,]3 [G,,,G,,] | [A,,,A,,]>!p![^F,A,C_E] [F,A,CE]2 [A,CE^F]2 | %235
 [G,C=EG]>[G,,G,] [G,,G,]4- | [G,,G,]>[G,,,G,,] [G,,,G,,]4 | %237
"^a tempo"!p! C,,/C,/E,/G,/!p! C/"^legato"C,/G,/C,/ A,/C,/B,/C,/ | %238
 C/C,/[^F,A,]/C,/ G,/C,/[E,G,]/C,/ =F,/C,/[F,_A,]/C,/ | %239
 [E,G,]/C,,/E,,/G,,/ C,/E,/G,/C,/ A,/C,/B,/C,/ | %240
 C/C,/E/C/[K:treble] G/C/[^D^F]/C/ [EG]/C/[G_B]/C/ | %241
 [FA]/C/[F_A]/C/ [FA]/C/[FB]/C/ [FB]/C/[FB]/C/ | [Gc]/C/[F_A]/C/ [FA]/C/!f![FB]/C/ [FB]/C/[FB]/C/ | %243
 [Gc]/C/c/B/ A/G/F/E/ D/C/B,/A,/ |[K:bass] G,/F,/E,/D,/ [C,C]/B,/A,/G,/ F,/E,/D,/C,/ | %245
 B,,/A,,/G,,/F,,/ E,,/F,,/C,/E,/ G,/C/E/E,/ | x4 F,/C/E,/C/ | %247
 _E,/A,/[I:staff -1]C/_E/[I:staff +1] x4 | [_A,C_E]>[_A,,_A,] [A,,A,]2 [=A,,=A,][CE] | %249
 [_B,D]>[_B,,_B,] [B,,B,]2 [=B,,=B,][DF] | C,[C_E] _B,,[C=E]"^cresc." _A,,[CF] | %251
 E,,[G,C] F,,[F,_A,C] ^F,,[^F,=A,C_E] |!ped! [G,=C=E]2 z2[K:treble] z/ d'/c'/b/ | %253
 a/c'/b/a/ g/b/a/g/ f/a/g/f/ | e/g/f/e/ d/f/e/d/ c/e/d/c/ | B/d/c/B/!ped-up! A/c/G/B/ F/A/E/G/ | %256
 D/F/C/E/"^cresc." B,/D/A,/C/[K:bass]"^-" G,/B,/F,/A,/ | %257
"^-" E,/G,/D,/F,/"^-" C,/E,/B,,/D,/ A,,/C,/G,,/C,/ | ^F,,>[^F,C_E] [F,CE]2 z2 | %259
 [^G,,,^G,,]>[^G,B,DF] [G,B,DF]2 z2 | [A,,,A,,]>[A,CE] [A,CE]2 z2 | x z x z x [F,G,] | %262
 [E,G,]2 C,2 B,,2 | (A,,2 _A,,2 G,,2) | C,2 B,,4 | [C,,E,,C,]2[K:treble] z ([EG][^D^F][=D=F]) | %266
 (E2 ^F2 [DG]2) | (([_B,C-E]2 [A,C=F]2)) ^F2 |[K:bass] G>G, [G,,G,]2 [G,,,G,,]2 | %269
 C,,/C,/E,/G,/ C/C,/C/B,/ A,/G,/F,/E,/ | [G,,D,G,]>[G,,,G,,] [G,,,G,,][G,,B,,][A,,C,][B,,D,] | %271
 C,,/C,/E,/G,/ C/C,/[K:treble]c/B/ A/G/F/E/ | [G,DG]>[K:bass][G,,G,] [G,,G,][G,B,][A,C][B,D] | %273
 [CE]C/B,/"^cresc." A,/G,/[F,F]/E/"^-" D/C/[K:treble][B,B]/"^-"A/ | %274
"^(cresc.)" G/F/[Ee]/"^-"d/ c/B/"^-"[Aa]/g/ f/e/d/c/ | B/A/G/F/ E/^D/=D/C/[K:bass] B,/A,/G,/F,/ | %276
 E,/D,/^C,/D,/"^cresc." B,,[G,,,G,,]"^-"[G,,,G,,][G,,,G,,] | %277
 [C,,C,] [G,,G,]"^-"[^F,,^F,][=F,,=F,][E,,E,]"^-"[B,,,B,,] | [C,,C,]2 [A,,,A,,]2 [F,,,F,,]2 | %279
!ped! [G,,,G,,]>[G,,C,E,G,] [G,,C,E,G,]2!ped-up! z2 | %280
!ped! [G,,,G,,]>[G,,B,,D,G,] [G,,B,,D,G,]2!ped-up! z2 | C,6- | C,6- | [C,,E,,C,]6- | [C,,E,,C,]6 |] %285
V:3
 x6 | x6 | x6 | x6 | x6 | x6 | x6 | x6 | z2!p! (^F2 G2) | x6 | z2 (=E2 F2) | x6 | z2 (D2 E) z | %13
 z2 (=E2 F) z | z ^FG c2 c | =B2 x4 | x6 | x6 | x6 | x6 | x6 | x6 | x6 | x6 | x6 | x6 | x6 | x6 | %28
 x6 | x6 | x6 | x6 | x6 | x6 | x6 | x6 | x4[K:bass] x2 | x2[K:treble] x4 | x6 | x6 | x6 | x6 | %42
 x2!8va(! x4 | x3!8va)! x3 | x6 | x2[K:bass] x4 | x6 | x6 | x5/2[K:treble] x7/2 | x6 | %50
 x5/2!8va(! x7/2 | x6 | x4!8va)! x2 | x6 | x4[K:bass] x2 | x6 | x6 |[K:treble] x6 | x6 | e2 E4- | %60
 E2 x4 | e2 E4- | E2 x4 | x6 | G6 | G2 x4 | G4 G2 | x6 | x4 B2 | A2 x4 | x4 A2 | x6 | x2 e4 | %73
 x2 e4 | x6 | edc=efg | x2 B x A x | x6 | x6 | x6 | x6 | x6 | x6 | x6 | (3edc (3Bde (3=efd | x6 | %86
 (3edc (3Bde (3=efd | (3_dcB (3Acd (3=dec | (3_gfe (3a=gf (3b=ag | %89
!8va(! (3=b_af (3c'=a^f (3_d'c'_b | x6!8va)! | x6 | x6 | x6 | x6 | x6 | x6 | x6 | x6 |[K:bass] x6 | %100
 x3[K:treble] x3 | x6 | x6 | x6 | x6 | x6 | x6 | x6 | x6 | x6 |!8va(! x6!8va)! | x6 | x6 | x6 | %114
 x6 | x6 | x6 | x4!8va(! x2 | x6!8va)! | x6 | x6 | x6 | x6 | x6 | x6 | x6 | x6 | x6 | e>A A>G G>A | %129
 x6 | x6 | x6 | x6 | x6 | x6 | x6 | x6 |[K:bass] D,2 x4 | x6 |[K:treble] D2 x4 | x6 || %141
[K:B] B,2[K:bass] x4 | G,>G, x4 | x2[K:treble] x4 | x6 | x6 | x6 | x6 | x6 | x6 | x6 | x6 | %152
 x4[K:bass] x2 ||[K:A] x3[K:treble] x3 | x6 | x6 | x6 | x6 | x6 | x6 ||[K:C] x6 | x6 | x6 | x6 | %164
 x6 ||[K:A] x6 | x6 | x6 | x6 | x6 | x6 | x6 |[K:C] x6 | x6 | x6 | x6 | x6 | x6 | x6 | x6 | x6 | %181
 x6 | x6 | x6 | x6 | x5/2!8va(! x7/2 | x6 | x6 | x2!8va)! x4 | x6 | x6 | x6 | x6 |[K:bass] x6 | %194
 x6 | x2[K:treble] x4 | C6- | C2 x4 | C6- | C2 x4 | x6 | E6 | E2 x4 | E2 ^D2 =D2 | x6 | x6 | x6 | %207
 x6 | x6 | x2 c4 | x2 c4 | x6 | cBA^cde | x6 | x6 | x6 | x6 | x6 | x6 | x6 | x6 | %221
 (3cBA (3GBc (3^cdB | x6 | (3cBA (3GBc (3^cdB | (3_BAG (3FAB (3=BcA | (3_edc (3f=ed (3g^fe | %226
 (3_afd (3=a^f_e (3_bag | x6 | x6 | x6 | x6 | x6 | x6 | x6 | x6 | x6 | x6 | x3[K:treble] x3 | x6 | %239
 x6 | x6 | x6 | x6 | x6 | x6 |!8va(! x2!8va)! x4 | x6 | x6 | x6 | x6 | x6 | x6 | x6 | x6 | x6 | %255
 x6 | x6 | x6 | x6 | x6 | x6 | x6 | x6 | x6 | x6 | x6 | x6 | x6 | x6 | x6 | x6 | x6 | x6 | x6 | %274
 x6 | x6 | x6 | x6 | x6 | x6 | x6 | x3/2[K:bass] x9/2 | x6 | x6 | x6 |] %285
V:4
 x6 | x6 |[K:treble] x6 | x6 |[K:bass] x6 | x6 | x6 | x6 | x6 | x6 | x6 | x6 | x6 | x6 | x6 | x6 | %16
 x6 | x6 |[K:treble] x6 | x6 |[K:bass] x6 | x6 | x6 | x6 | x6 | x6 | x6 | x6 | x6 | x6 | x6 | x6 | %32
 x6 | x6 | x6 | x3/2[K:treble] x9/2 |[K:bass] x6 | x2 E,2 _C,2 | x2 _F,2 _D,2 | x6 | x6 | x6 | %42
 x3[K:treble] B2 B | B2 x B,2 B, | B,2 x[K:bass] B,,2 B,, | B,,2 x B,,,2 B,,, | x6 | x6 | x6 | %49
 x9/2[K:treble] x3/2 | x6 | x6 | x6 | x5[K:bass] x | x5[K:bass] x | x6 | x6 | x6 | x6 | E,6 | %60
 E,,>E, E,4- | E,6 | E,,>E, E,4 | E,6 | E,6 | D,6 | G,2 x2 G,2 | C,4 C,2 | [C,E,]4 C,2 | F,6 | %70
 [F,A,]6 | x6 |[K:treble] x6 | x6 | A,3 x3 | x2 A,4- | A,2 x4 | x6 |[K:bass] x6 | x2 E,4 | x6 | %81
[K:treble] x2 E4 | x6 | x6 | x6 | x6 | x6 | x6 | =A,2 =B,2 C2 | D2 E2 =E2 | F2 x4 | x6 | x6 | %93
[K:bass] x6 | x6 | x6 | x6 | x6 | x2 B,,4- | x6 | x6 | x6 | x6 | x6 | x6 | x[K:treble] x5 | x6 | %107
 x6 | x6 |[K:bass] x6 | x6 | x6 | x4[K:treble] x2 | x3/2[K:bass] x9/2 | x6 | x6 | x6 | %117
 x4[K:treble] x/!8va(! x3/2 | x6!8va)! | x6 | x6 | x4[K:bass] x2 | x6 | x6 | x6 | x6 | x6 | x6 | %128
 E,4- E,>E, | E,2 E,4 | x6 | E,6- | E,4- E,>E, | E,6 | x6 | x6 | x6 | x6 | x6 | x6 | %140
 E,2 =B,,2 ^G,,2 ||[K:B] x6 | E,,2 ^F,,2 F,,2 | B,,,>B,, B,,4- | B,,6 | [B,,E,]6 | x6 | %147
 B,2 ^A,2 =A,2 | G,2 =G,2 F,2 | [E,G,]2 [^D,F,]2 =D,2 | C,>C,, x[K:treble] x3 | x3/2[K:bass] x9/2 | %152
 x6 ||[K:A] x6 | x6 | x6 | x6 | x6 | x6 | x6 ||[K:C] x6 | x3[K:treble] x3 | x6 | x6 |[K:bass] x6 || %165
[K:A] x[K:treble] x5 | x6 | x6 |[K:bass] x6 | x6 | x6 | x6 |[K:C] x6 | x6 | x6 | x6 | x6 | x6 | %178
 x6 | x6 | x6 | x6 | x6 | x2 G,,4 | x2 G,4 |[K:treble] x2 G4- | G6 | G2 x4 | x6 | x6 | %190
 x2[K:bass] x4 | x6 | x6 | x6 | x6 | x6 | C,6 | C,,>C, C,4- | C,6 | C,,>C, C,4- | C,6 | C,6 | %202
 B,,6 | x6 | A,,4 A,,2 | A,,4 A,,2 | D,6 | D,4 x2 | x6 |[K:treble] x6 | x4[K:bass] x2 | F,2 x4 | %212
 x2 F,4- | F,2 G, x G, x | x6 | x6 | x2 C,4 | x6 |[K:treble] x2 C4 | x6 | x6 | x6 | x6 | x6 | x6 | %225
 ^F,2 ^G,2 _B,2 | =B,2 C2 ^C2 | D2[K:bass] x4 | x6 | x6 |[K:bass] x6 | x6 | x6 | x6 | x6 | x6 | %236
 x6 | x6 | x6 | x6 | x2[K:treble] x4 | x6 | x6 | x6 |[K:bass] x6 | x6 | %246
 F,>[F,,,F,,] [F,,,F,,]2 [A,,C,][G,,C,] | [^F,,C,]>[^F,,,^F,,] [F,,,F,,]2 [^F,C_E][G,CE] | x6 | %249
 x6 | x6 | x6 | x4[K:treble] x2 | x6 | x6 | x6 | x4[K:bass] x2 | x6 | x6 | x6 | x6 | %261
 F,, x G,, x [G,,,G,,] z | C,,>C, C,4- | C,6 | x6 | x2[K:treble] x4 | C4 B,2 | x4 [_A,C_E]2 | %268
[K:bass] [G,C=E]>G,, x4 | x6 | x6 | x3[K:treble] x3 | x3/2[K:bass] x9/2 | x5[K:treble] x | x6 | %275
 x4[K:bass] x2 | x6 | x6 | x6 | x6 | x6 | C,,6- | C,,6- | x6 | x6 |] %285
V:5
 x6 | x6 | x6 | x6 | x6 | x6 | x6 | x6 | x6 | x6 | x6 | x6 | x6 | x6 | x6 | x6 | x6 | x6 | x6 | %19
 x6 | x6 | x6 | x6 | x6 | x6 | x6 | x6 | x6 | x6 | x6 | x6 | x6 | x6 | x6 | x6 | x6 | %36
 x4[K:bass] x2 | x2[K:treble] x4 | x6 | x6 | x6 | x6 | x2!8va(! x4 | x3!8va)! x3 | x6 | %45
 x2[K:bass] x4 | x6 | x6 | x5/2[K:treble] x7/2 | x6 | x5/2!8va(! x7/2 | x6 | x4!8va)! x2 | x6 | %54
 x4[K:bass] x2 | x6 | x6 |[K:treble] x6 | x6 | x2 A2 x2 | x6 | x2 A2 x2 | x6 | x6 | x6 | x6 | x6 | %67
 x6 | x6 | x6 | x6 | x6 | x6 | x6 | x6 | x6 | x6 | x6 | x6 | x6 | x6 | x6 | x6 | x6 | x6 | x6 | %86
 x6 | x6 | x6 |!8va(! x6 | x6!8va)! | x6 | x6 | x6 | x6 | x6 | x6 | x6 | x6 |[K:bass] x6 | %100
 x3[K:treble] x3 | x6 | x6 | x6 | x6 | x6 | x6 | x6 | x6 | x6 |!8va(! x6!8va)! | x6 | x6 | x6 | %114
 x6 | x6 | x6 | x4!8va(! x2 | x6!8va)! | x6 | x6 | x6 | x6 | x6 | x6 | x6 | x6 | x6 | x6 | x6 | %130
 x6 | x6 | x6 | x6 | x6 | x6 | x6 |[K:bass] x6 | x6 |[K:treble] x6 | x6 ||[K:B] x2[K:bass] x4 | %142
 x6 | x2[K:treble] x4 | x6 | x6 | x6 | x6 | x6 | x6 | x6 | x6 | x4[K:bass] x2 || %153
[K:A] x3[K:treble] x3 | x6 | x6 | x6 | x6 | x6 | x6 ||[K:C] x6 | x6 | x6 | x6 | x6 ||[K:A] x6 | %166
 x6 | x6 | x6 | x6 | x6 | x6 |[K:C] x6 | x6 | x6 | x6 | x6 | x6 | x6 | x6 | x6 | x6 | x6 | x6 | %184
 x6 | x5/2!8va(! x7/2 | x6 | x6 | x2!8va)! x4 | x6 | x6 | x6 | x6 |[K:bass] x6 | x6 | %195
 x2[K:treble] x4 | c2 F2 A2 | x6 | c2 F2 _A2 | x6 | x6 | x6 | x6 | x6 | x6 | x6 | x6 | x6 | x6 | %209
 x6 | x6 | x6 | x6 | x6 | x6 | x6 | x6 | x6 | x6 | x6 | x6 | x6 | x6 | x6 | x6 | x6 | x6 | x6 | %228
 x6 | x6 | x6 | x6 | x6 | x6 | x6 | x6 | x6 | x3[K:treble] x3 | x6 | x6 | x6 | x6 | x6 | x6 | x6 | %245
!8va(! x2!8va)! x4 | x6 | x6 | x6 | x6 | x6 | x6 | x6 | x6 | x6 | x6 | x6 | x6 | x6 | x6 | x6 | %261
 x6 | x6 | x6 | x6 | x6 | x6 | x6 | x6 | x6 | x6 | x6 | x6 | x6 | x6 | x6 | x6 | x6 | x6 | x6 | %280
 x6 | x3/2[K:bass] x9/2 | x6 | x6 | x6 |] %285
V:6
 x6 | x6 |[K:treble] x6 | x6 |[K:bass] x6 | x6 | x6 | x6 | x6 | x6 | x6 | x6 | x6 | x6 | x6 | x6 | %16
 x6 | x6 |[K:treble] x6 | x6 |[K:bass] x6 | x6 | x6 | x6 | x6 | x6 | x6 | x6 | x6 | x6 | x6 | x6 | %32
 x6 | x6 | x6 | x3/2[K:treble] x9/2 |[K:bass] x6 | x6 | x6 | x6 | x6 | x6 | x3[K:treble] x3 | x6 | %44
 x3[K:bass] x3 | x6 | x6 | x6 | x6 | x9/2[K:treble] x3/2 | x6 | x6 | x6 | x5[K:bass] x | %54
 x5[K:bass] x | x6 | x6 | x6 | x6 | x6 | x6 | x6 | x6 | x6 | x6 | x6 | x6 | x6 | x6 | x6 | x6 | %71
 x6 |[K:treble] x6 | x6 | x6 | x6 | x6 | x6 |[K:bass] x6 | x6 | x6 |[K:treble] x6 | x6 | x6 | x6 | %85
 x6 | x6 | x6 | x6 | x6 | x6 | x6 | x6 |[K:bass] x6 | x6 | x6 | x6 | x6 | x6 | x6 | x6 | x6 | x6 | %103
 x6 | x6 | x[K:treble] x5 | x6 | x6 | x6 |[K:bass] x6 | x6 | x6 | x4[K:treble] x2 | %113
 x3/2[K:bass] x9/2 | x6 | x6 | x6 | x4[K:treble] x/!8va(! x3/2 | x6!8va)! | x6 | x6 | %121
 x4[K:bass] x2 | x6 | x6 | x6 | x6 | x6 | x6 | x6 | x6 | x6 | x6 | x6 | x6 | x6 | x6 | x6 | x6 | %138
 x6 | x6 | x6 ||[K:B] x6 | x6 | x6 | x6 | x6 | x6 | x6 | x6 | x6 | x3[K:treble] x3 | %151
 x3/2[K:bass] x9/2 | x6 ||[K:A] x6 | x6 | x6 | x6 | x6 | x6 | x6 ||[K:C] x6 | x3[K:treble] x3 | %162
 x6 | x6 |[K:bass] x6 ||[K:A] x[K:treble] x5 | x6 | x6 |[K:bass] x6 | x6 | x6 | x6 |[K:C] x6 | x6 | %174
 x6 | x6 | x6 | x6 | x6 | x6 | x6 | x6 | x6 | x6 | x6 |[K:treble] x6 | x6 | x6 | x6 | x6 | %190
 x2[K:bass] x4 | x6 | x6 | x6 | x6 | x6 | x6 | x6 | x6 | x6 | x6 | x6 | x6 | x6 | x6 | x6 | x6 | %207
 x6 | x6 |[K:treble] x6 | x4[K:bass] x2 | x6 | x6 | x6 | x6 | x6 | x6 | x6 |[K:treble] x6 | x6 | %220
 x6 | x6 | x6 | x6 | x6 | x6 | x6 | x2[K:bass] x4 | x6 | x6 |[K:bass] x6 | x6 | x6 | x6 | x6 | x6 | %236
 x6 | x6 | x6 | x6 | x2[K:treble] x4 | x6 | x6 | x6 |[K:bass] x6 | x6 | x6 | x6 | x6 | x6 | x6 | %251
 x6 | x4[K:treble] x2 | x6 | x6 | x6 | x4[K:bass] x2 | x6 | x6 | x6 | x6 | x6 | C,,6- | C,,6- | %264
 [C,,F,,]6 | x2[K:treble] x4 | x6 | x6 |[K:bass] x6 | x6 | x6 | x3[K:treble] x3 | %272
 x3/2[K:bass] x9/2 | x5[K:treble] x | x6 | x4[K:bass] x2 | x6 | x6 | x6 | x6 | x6 | x4 A,,2 | %282
 G,,2 F,,2 ^D,,2 | x6 | x6 |] %285

